X:411
T:Johnny Fetch Your Wife Back
M:C
L:1/8
K:D
|: dfed B2 AA | B2 AA F2 A2 | dfed B2 AA | B2 c2 d4 |
dfed B2 AA | B2 AA F2 A2 | dfed B2 AA | B2 c2 d4 :|
|: d2 f2 a3 a | b2 a2 f2 e2 | defg a2 a2 | b2 a2 f4 |
d2 f2 a3 a | b2 a2 f2 e2 | dfed B2 AA | B2 c2 d4 :||
